assets/images/icons/home/home_summary_icon.svg

<svg fill="none" height="60" viewBox="0 0 80 60" width="80" xmlns="http://www.w3.org/2000/svg"><path d="m34.6236 56.7484v-11.2503c0-.4973-.1975-.9742-.5491-1.3258-.3517-.3516-.8286-.5492-1.3259-.5492h-7.5c-.4973 0-.9742.1976-1.3258.5492s-.5492.8285-.5492 1.3258v11.2503c0 .4972-.1975.9741-.5491 1.3257-.3515.3516-.8284.5492-1.3256.5493l-11.2487.0014c-.2462.0001-.49006-.0484-.71757-.1426s-.43424-.2323-.60837-.4064c-.17414-.1742-.31227-.3809-.40651-.6084s-.14275-.4713-.14275-.7176v-21.6704c0-.2612.05458-.5195.16025-.7584s.26009-.4531.45337-.6288l18.74868-17.0473c.3452-.3138.7949-.4877 1.2613-.4877.4665 0 .9162.1739 1.2614.4877l18.7513 17.0473c.1933.1757.3477.3899.4534.6288s.1603.4973.1603.7585v21.6704c0 .2462-.0485.49-.1427.7175-.0943.2275-.2324.4342-.4066.6084-.1741.1741-.3808.3122-.6083.4064s-.4714.1427-.7176.1427l-11.2514-.0015c-.4973-.0001-.9741-.1977-1.3257-.5493s-.5491-.8285-.5491-1.3257z" fill="#fff" stroke="#fff" stroke-linecap="round" stroke-linejoin="round"/><path d="m27.1388 12.8732-24.6099 19.2075c-.33394.2607-.55522.5858-.63675.9356s-.01979.7091.17768 1.034c.19747.325.52209.6014.93418.7955.41208.1941.89375.2975 1.38609.2975h49.2199c.4923 0 .974-.1034 1.3861-.2975.412-.1941.7367-.4705.9341-.7955.1975-.3249.2592-.6842.1777-1.034s-.3028-.6749-.6367-.9356l-24.61-19.2075c-.2371-.1851-.525-.3328-.8453-.4339-.3203-.101-.6662-.1532-1.0159-.1532-.3496 0-.6955.0522-1.0159.1532-.3203.1011-.6081.2488-.8453.4339z" fill="#fff" stroke="#fff" stroke-linecap="round" stroke-linejoin="round" stroke-width="2"/><path d="m61.1 38 2.7-13.5714-10.8-4.0715 18.9-20.3571-2.7 13.5714 10.8 4.0715z" fill="#fec908"/></svg>

<svg width="80" height="60" viewBox="0 0 80 60" fill="none" xmlns="http://www.w3.org/2000/svg">
<path d="M34.6236 56.7484V45.4981C34.6236 45.0008 34.4261 44.5239 34.0745 44.1723C33.7228 43.8207 33.2459 43.6231 32.7486 43.6231H25.2486C24.7513 43.6231 24.2744 43.8207 23.9228 44.1723C23.5712 44.5239 23.3736 45.0008 23.3736 45.4981V56.7484C23.3736 57.2456 23.1761 57.7225 22.8245 58.0741C22.473 58.4257 21.9961 58.6233 21.4989 58.6234L10.2502 58.6248C10.004 58.6249 9.76014 58.5764 9.53263 58.4822C9.30512 58.388 9.09839 58.2499 8.92426 58.0758C8.75012 57.9016 8.61199 57.6949 8.51775 57.4674C8.42351 57.2399 8.375 56.9961 8.375 56.7498V35.0794C8.375 34.8182 8.42958 34.5599 8.53525 34.321C8.64092 34.0821 8.79534 33.8679 8.98862 33.6922L27.7373 16.6449C28.0825 16.3311 28.5322 16.1572 28.9986 16.1572C29.4651 16.1572 29.9148 16.3311 30.26 16.6449L49.0113 33.6922C49.2046 33.8679 49.359 34.0821 49.4647 34.321C49.5704 34.5599 49.625 34.8183 49.625 35.0795V56.7499C49.625 56.9961 49.5765 57.2399 49.4823 57.4674C49.388 57.6949 49.2499 57.9016 49.0757 58.0758C48.9016 58.2499 48.6949 58.388 48.4674 58.4822C48.2399 58.5764 47.996 58.6249 47.7498 58.6249L36.4984 58.6234C36.0011 58.6233 35.5243 58.4257 35.1727 58.0741C34.8211 57.7225 34.6236 57.2456 34.6236 56.7484V56.7484Z" fill="white" stroke="white" stroke-linecap="round" stroke-linejoin="round"/>
<path d="M27.1388 12.8732L2.5289 32.0807C2.19496 32.3414 1.97368 32.6665 1.89215 33.0163C1.81062 33.3661 1.87236 33.7254 2.06983 34.0503C2.2673 34.3753 2.59192 34.6517 3.00401 34.8458C3.41609 35.0399 3.89776 35.1433 4.3901 35.1433H53.61C54.1023 35.1433 54.584 35.0399 54.9961 34.8458C55.4081 34.6517 55.7328 34.3753 55.9302 34.0503C56.1277 33.7254 56.1894 33.3661 56.1079 33.0163C56.0264 32.6665 55.8051 32.3414 55.4712 32.0807L30.8612 12.8732C30.6241 12.6881 30.3362 12.5404 30.0159 12.4393C29.6956 12.3383 29.3497 12.2861 29 12.2861C28.6504 12.2861 28.3045 12.3383 27.9841 12.4393C27.6638 12.5404 27.376 12.6881 27.1388 12.8732Z" fill="white" stroke="white" stroke-width="2" stroke-linecap="round" stroke-linejoin="round"/>
<path d="M61.1 38L63.8 24.4286L53 20.3571L71.9 0L69.2 13.5714L80 17.6429L61.1 38Z" fill="#FEC908"/>
</svg>
